; generated by Slic3r 1.3.0-dev on 2017-12-24 at 11:42:32

; external perimeters extrusion width = 0.40mm (2.21mm^3/s)
; perimeters extrusion width = 0.40mm (3.31mm^3/s)
; infill extrusion width = 0.40mm (4.41mm^3/s)
; solid infill extrusion width = 0.40mm (4.41mm^3/s)
; top infill extrusion width = 0.40mm (0.83mm^3/s)

M190 S50 ; set bed temperature and wait for it to be reached
M104 S195 ; set temperature
G28 ; home all axes
G1 Z5 F5000 ; lift nozzle

; Filament gcode

M109 S195 ; set temperature and wait for it to be reached
G21 ; set units to millimeters
G90 ; use absolute coordinates
M82 ; use absolute distances for extrusion
G92 E0
G1 E-5.00000 F3600.00000
G92 E0
G1 Z1.000 F7800.000
G1 X95.073 Y97.290 F7800.000
G1 Z0.300 F7800.000
G1 E5.20000 F3600.00000
M201 X500 Y500
M204 P500 T500
G1 F1800
G1 X96.860 Y95.569 E5.33478
G1 X99.100 Y94.502 E5.46957
G1 X101.266 Y94.193 E5.58849
G1 X118.734 Y94.193 E6.53753
G1 X121.182 Y94.590 E6.67231
G1 X123.380 Y95.742 E6.80710
G1 X125.100 Y97.529 E6.94188
G1 X126.167 Y99.769 E7.07667
G1 X126.476 Y101.936 E7.19559
G1 X126.476 Y115.905 E7.95462
G1 X126.079 Y118.354 E8.08940
G1 X124.927 Y120.551 E8.22418
G1 X123.140 Y122.272 E8.35897
G1 X120.900 Y123.339 E8.49375
G1 X118.734 Y123.648 E8.61267
G1 X101.266 Y123.648 E9.56171
G1 X98.818 Y123.251 E9.69650
G1 X96.620 Y122.099 E9.83128
G1 X94.900 Y120.312 E9.96607
G1 X93.833 Y118.072 E10.10085
G1 X93.524 Y115.905 E10.21977
G1 X93.524 Y101.936 E10.97880
G1 X93.921 Y99.487 E11.11358
G1 X95.045 Y97.343 E11.24511
M201 X400 Y400
M204 P400 T400
G1 X95.505 Y97.441 F7800.000
M201 X500 Y500
M204 P500 T500
G1 F1800
G1 X97.280 Y95.812 E11.37602
G1 X99.489 Y94.848 E11.50693
G1 X101.266 Y94.629 E11.60425
G1 X118.734 Y94.629 E12.55329
G1 X121.110 Y95.026 E12.68420
G1 X123.228 Y96.174 E12.81512
G1 X124.858 Y97.950 E12.94603
G1 X125.821 Y100.158 E13.07694
G1 X126.040 Y101.936 E13.17425
G1 X126.040 Y115.905 E13.93328
G1 X125.643 Y118.282 E14.06420
G1 X124.495 Y120.400 E14.19511
G1 X122.720 Y122.029 E14.32602
G1 X120.511 Y122.993 E14.45693
G1 X118.734 Y123.212 E14.55425
G1 X101.266 Y123.212 E15.50329
G1 X98.890 Y122.815 E15.63420
G1 X96.772 Y121.667 E15.76511
G1 X95.142 Y119.891 E15.89603
G1 X94.179 Y117.683 E16.02694
G1 X93.960 Y115.905 E16.12425
G1 X93.960 Y101.936 E16.88328
G1 X94.357 Y99.559 E17.01419
G1 X95.477 Y97.494 E17.14185
M201 X400 Y400
M204 P400 T400
G1 X95.938 Y97.598 F7800.000
M201 X500 Y500
M204 P500 T500
G1 F1800
G1 X97.699 Y96.063 E17.26877
G1 X99.872 Y95.207 E17.39569
G1 X101.266 Y95.064 E17.47182
G1 X118.734 Y95.064 E18.42087
G1 X121.036 Y95.461 E18.54779
G1 X123.072 Y96.607 E18.67471
G1 X124.606 Y98.368 E18.80164
G1 X125.462 Y100.542 E18.92856
G1 X125.605 Y101.936 E19.00469
G1 X125.605 Y115.905 E19.76372
G1 X125.208 Y118.208 E19.89064
G1 X124.062 Y120.243 E20.01756
G1 X122.301 Y121.778 E20.14449
G1 X120.128 Y122.634 E20.27141
G1 X118.734 Y122.777 E20.34754
G1 X101.266 Y122.777 E21.29658
G1 X98.964 Y122.380 E21.42351
G1 X96.928 Y121.234 E21.55043
G1 X95.394 Y119.473 E21.67735
G1 X94.538 Y117.299 E21.80427
G1 X94.395 Y115.905 E21.88041
G1 X94.395 Y101.936 E22.63944
G1 X94.792 Y99.633 E22.76636
G1 X95.908 Y97.650 E22.89002
M201 X400 Y400
M204 P400 T400
G1 X96.369 Y97.760 F7800.000
M201 X500 Y500
M204 P500 T500
G1 F1800
G1 X98.115 Y96.324 E23.01282
G1 X101.266 Y95.500 E23.18980
G1 X118.734 Y95.500 E24.13885
G1 X120.959 Y95.897 E24.26165
G1 X122.909 Y97.038 E24.38445
G1 X124.345 Y98.784 E24.50726
G1 X125.169 Y101.936 E24.68423
G1 X125.169 Y115.905 E25.44326
G1 X124.772 Y118.131 E25.56607
G1 X123.631 Y120.081 E25.68887
G1 X121.885 Y121.517 E25.81167
G1 X118.734 Y122.341 E25.98865
G1 X101.266 Y122.341 E26.93770
G1 X99.041 Y121.944 E27.06050
G1 X97.091 Y120.803 E27.18330
G1 X95.655 Y119.057 E27.30610
G1 X94.831 Y115.905 E27.48308
G1 X94.831 Y101.936 E28.24211
G1 X95.228 Y99.710 E28.36492
G1 X96.339 Y97.812 E28.48446
M201 X400 Y400
M204 P400 T400
G1 F6240
G1 X98.115 Y96.324 E27.21479
G1 F6240
G1 X101.266 Y95.500 E25.42954
G1 F6240
G1 X104.359 Y95.500 E23.73446
G1 E23.48446 F3600.00000
G92 E0
G1 Z1.300 F7800.000
G1 X117.612 Y114.784 F7800.000
G1 Z0.300 F7800.000
G1 E5.20000 F3600.00000
M201 X500 Y500
M204 P500 T500
G1 F1800
G1 X111.732 Y114.784 E5.51950
G1 X111.732 Y103.057 E6.15669
G1 X117.612 Y103.057 E6.47619
G1 X117.612 Y114.724 E7.11012
M201 X400 Y400
M204 P400 T400
G1 X118.048 Y115.220 F7800.000
M201 X500 Y500
M204 P500 T500
G1 F1800
G1 X111.296 Y115.220 E7.47696
G1 X111.296 Y102.621 E8.16149
G1 X118.048 Y102.621 E8.52833
G1 X118.048 Y115.160 E9.20959
M201 X400 Y400
M204 P400 T400
G1 X118.484 Y115.656 F7800.000
M201 X500 Y500
M204 P500 T500
G1 F1800
G1 X110.861 Y115.656 E9.62377
G1 X110.861 Y102.186 E10.35563
G1 X118.484 Y102.186 E10.76981
G1 X118.484 Y115.596 E11.49841
M201 X400 Y400
M204 P400 T400
G1 X118.108 Y115.518 F7800.000
G1 X117.007 Y114.518 F7800.000
M201 X500 Y500
M204 P500 T500
G1 F1800
G1 X117.346 Y114.179 E11.52524
G1 X117.346 Y113.544 E11.56076
G1 X116.373 Y114.518 E11.63782
G1 X115.738 Y114.518 E11.67334
G1 X117.346 Y112.910 E11.80063
G1 X117.346 Y112.275 E11.83615
G1 X115.103 Y114.518 E12.01367
G1 X114.469 Y114.518 E12.04919
G1 X117.346 Y111.641 E12.27695
G1 X117.346 Y111.006 E12.31246
G1 X113.834 Y114.518 E12.59045
G1 X113.200 Y114.518 E12.62597
G1 X117.346 Y110.371 E12.95418
G1 X117.346 Y109.737 E12.98970
G1 X112.565 Y114.518 E13.36815
G1 X111.998 Y114.518 E13.39987
G1 X111.998 Y114.450 E13.40367
G1 X117.346 Y109.102 E13.82698
G1 X117.346 Y108.468 E13.86250
G1 X111.998 Y113.816 E14.28581
G1 X111.998 Y113.181 E14.32133
G1 X117.346 Y107.833 E14.74464
G1 X117.346 Y107.198 E14.78016
G1 X111.998 Y112.546 E15.20347
G1 X111.998 Y111.912 E15.23899
G1 X117.346 Y106.564 E15.66230
G1 X117.346 Y105.929 E15.69782
G1 X111.998 Y111.277 E16.12114
G1 X111.998 Y110.643 E16.15665
G1 X117.346 Y105.295 E16.57997
G1 X117.346 Y104.660 E16.61549
G1 X111.998 Y110.008 E17.03880
G1 X111.998 Y109.373 E17.07432
G1 X117.346 Y104.025 E17.49763
G1 X117.346 Y103.391 E17.53315
G1 X111.998 Y108.739 E17.95646
G1 X111.998 Y108.104 E17.99198
G1 X116.779 Y103.323 E18.37043
G1 X116.145 Y103.323 E18.40594
G1 X111.998 Y107.470 E18.73416
G1 X111.998 Y106.835 E18.76968
G1 X115.510 Y103.323 E19.04767
G1 X114.876 Y103.323 E19.08318
G1 X111.998 Y106.200 E19.31094
G1 X111.998 Y105.566 E19.34646
G1 X114.241 Y103.323 E19.52398
G1 X113.606 Y103.323 E19.55950
G1 X111.998 Y104.931 E19.68679
G1 X111.998 Y104.297 E19.72231
G1 X112.972 Y103.323 E19.79937
G1 X112.337 Y103.323 E19.83489
G1 X111.998 Y103.662 E19.86171
M201 X400 Y400
M204 P400 T400
G1 F6240
G1 X112.337 Y103.323 E19.59908
G1 F6240
G1 X112.972 Y103.323 E19.25127
G1 F6240
G1 X111.998 Y104.297 E18.49664
G1 F6240
G1 X111.998 Y104.931 E18.14882
G1 F6240
G1 X113.606 Y103.323 E16.90231
G1 F6240
G1 X114.241 Y103.323 E16.55449
G1 F6240
G1 X112.380 Y105.184 E15.11171
G1 E14.86171 F3600.00000
G92 E0
G1 Z1.300 F7800.000
G1 X108.268 Y114.784 F7800.000
G1 Z0.300 F7800.000
G1 E5.20000 F3600.00000
M201 X500 Y500
M204 P500 T500
G1 F1800
G1 X102.388 Y114.784 E5.51950
G1 X102.388 Y103.057 E6.15669
G1 X108.268 Y103.057 E6.47619
G1 X108.268 Y114.724 E7.11012
M201 X400 Y400
M204 P400 T400
G1 X108.704 Y115.220 F7800.000
M201 X500 Y500
M204 P500 T500
G1 F1800
G1 X101.952 Y115.220 E7.47696
G1 X101.952 Y102.621 E8.16149
G1 X108.704 Y102.621 E8.52833
G1 X108.704 Y115.160 E9.20959
M201 X400 Y400
M204 P400 T400
G1 X109.139 Y115.656 F7800.000
M201 X500 Y500
M204 P500 T500
G1 F1800
G1 X101.516 Y115.656 E9.62377
G1 X101.516 Y102.186 E10.35563
G1 X109.139 Y102.186 E10.76981
G1 X109.139 Y115.596 E11.49841
M201 X400 Y400
M204 P400 T400
G1 X108.764 Y115.518 F7800.000
G1 X107.663 Y114.518 F7800.000
M201 X500 Y500
M204 P500 T500
G1 F1800
G1 X108.002 Y114.179 E11.52524
G1 X108.002 Y113.544 E11.56076
G1 X107.028 Y114.518 E11.63782
G1 X106.394 Y114.518 E11.67334
G1 X108.002 Y112.910 E11.80063
G1 X108.002 Y112.275 E11.83615
G1 X105.759 Y114.518 E12.01367
G1 X105.124 Y114.518 E12.04919
G1 X108.002 Y111.641 E12.27694
G1 X108.002 Y111.006 E12.31246
G1 X104.490 Y114.518 E12.59045
G1 X103.855 Y114.518 E12.62597
G1 X108.002 Y110.371 E12.95418
G1 X108.002 Y109.737 E12.98970
G1 X103.221 Y114.518 E13.36815
G1 X102.654 Y114.518 E13.39987
G1 X102.654 Y114.450 E13.40367
G1 X108.002 Y109.102 E13.82698
G1 X108.002 Y108.468 E13.86250
G1 X102.654 Y113.816 E14.28581
G1 X102.654 Y113.181 E14.32133
G1 X108.002 Y107.833 E14.74464
G1 X108.002 Y107.198 E14.78016
G1 X102.654 Y112.546 E15.20347
G1 X102.654 Y111.912 E15.23899
G1 X108.002 Y106.564 E15.66230
G1 X108.002 Y105.929 E15.69782
G1 X102.654 Y111.277 E16.12113
G1 X102.654 Y110.643 E16.15665
G1 X108.002 Y105.295 E16.57996
G1 X108.002 Y104.660 E16.61548
G1 X102.654 Y110.008 E17.03880
G1 X102.654 Y109.373 E17.07431
G1 X108.002 Y104.025 E17.49763
G1 X108.002 Y103.391 E17.53315
G1 X102.654 Y108.739 E17.95646
G1 X102.654 Y108.104 E17.99198
G1 X107.435 Y103.323 E18.37042
G1 X106.800 Y103.323 E18.40594
G1 X102.654 Y107.470 E18.73416
G1 X102.654 Y106.835 E18.76968
G1 X106.166 Y103.323 E19.04766
G1 X105.531 Y103.323 E19.08318
G1 X102.654 Y106.200 E19.31094
G1 X102.654 Y105.566 E19.34645
G1 X104.897 Y103.323 E19.52398
G1 X104.262 Y103.323 E19.55950
G1 X102.654 Y104.931 E19.68679
G1 X102.654 Y104.297 E19.72231
G1 X103.627 Y103.323 E19.79937
G1 X102.993 Y103.323 E19.83489
G1 X102.654 Y103.662 E19.86171
M201 X400 Y400
M204 P400 T400
M106 S255
M104 S190 ; set temperature
G1 F6240
G1 X102.993 Y103.323 E19.59908
G1 F6240
G1 X103.627 Y103.323 E19.25127
G1 F6240
G1 X102.654 Y104.297 E18.49664
G1 F6240
G1 X102.654 Y104.931 E18.14882
G1 F6240
G1 X104.262 Y103.323 E16.90230
G1 F6240
G1 X104.897 Y103.323 E16.55449
G1 F6240
G1 X103.035 Y105.184 E15.11171
G1 E14.86171 F3600.00000
G92 E0
G1 Z1.300 F7800.000
G1 X111.546 Y114.970 F7800.000
G1 Z0.450 F7800.000
G1 E5.20000 F3600.00000
M201 X500 Y500
M204 P500 T500
G1 F900
G1 X111.546 Y102.871 E5.47752
G1 X117.798 Y102.871 E5.62092
G1 X117.798 Y114.970 E5.89843
G1 X111.606 Y114.970 E6.04046
M201 X400 Y400
M204 P400 T400
G1 X111.178 Y115.338 F7800.000
M201 X500 Y500
M204 P500 T500
G1 F900
G1 X111.178 Y102.503 E6.33485
G1 X118.166 Y102.503 E6.49512
G1 X118.166 Y115.338 E6.78951
G1 X111.238 Y115.338 E6.94840
M201 X400 Y400
M204 P400 T400
G1 X110.811 Y115.706 F7800.000
M201 X500 Y500
M204 P500 T500
G1 F2400
G1 X110.811 Y102.136 E7.25967
G1 X118.534 Y102.136 E7.43681
G1 X118.534 Y115.706 E7.74808
G1 X110.871 Y115.706 E7.92385
M201 X400 Y400
M204 P400 T400
G1 X110.879 Y115.311 F7800.000
G1 X111.771 Y114.459 F7800.000
M201 X500 Y500
M204 P500 T500
G1 F4800
G1 X112.057 Y114.745 E7.93326
G1 X112.585 Y114.745 E7.94553
G1 X111.771 Y113.931 E7.97230
G1 X111.771 Y113.404 E7.98456
G1 X113.112 Y114.745 E8.02868
G1 X113.640 Y114.745 E8.04095
G1 X111.771 Y112.877 E8.10242
G1 X111.771 Y112.349 E8.11469
G1 X114.167 Y114.745 E8.19351
G1 X114.695 Y114.745 E8.20577
G1 X111.771 Y111.822 E8.30194
G1 X111.771 Y111.294 E8.31421
G1 X115.222 Y114.745 E8.42773
G1 X115.750 Y114.745 E8.44000
G1 X111.771 Y110.767 E8.57087
G1 X111.771 Y110.239 E8.58314
G1 X116.277 Y114.745 E8.73136
G1 X116.804 Y114.745 E8.74363
G1 X111.771 Y109.712 E8.90920
G1 X111.771 Y109.184 E8.92147
G1 X117.332 Y114.745 E9.10440
G1 X117.573 Y114.745 E9.11001
G1 X117.573 Y114.459 E9.11667
G1 X111.771 Y108.657 E9.30753
G1 X111.771 Y108.129 E9.31979
G1 X117.573 Y113.931 E9.51065
G1 X117.573 Y113.404 E9.52292
G1 X111.771 Y107.602 E9.71378
G1 X111.771 Y107.074 E9.72605
G1 X117.573 Y112.877 E9.91691
G1 X117.573 Y112.349 E9.92918
G1 X111.771 Y106.547 E10.12004
G1 X111.771 Y106.019 E10.13231
G1 X117.573 Y111.822 E10.32317
G1 X117.573 Y111.294 E10.33544
G1 X111.771 Y105.492 E10.52630
G1 X111.771 Y104.964 E10.53857
G1 X117.573 Y110.767 E10.72943
G1 X117.573 Y110.239 E10.74170
G1 X111.771 Y104.437 E10.93256
G1 X111.771 Y103.910 E10.94482
G1 X117.573 Y109.712 E11.13568
G1 X117.573 Y109.184 E11.14795
G1 X111.771 Y103.382 E11.33881
G1 X111.771 Y103.096 E11.34547
G1 X112.012 Y103.096 E11.35108
G1 X117.573 Y108.657 E11.53401
G1 X117.573 Y108.129 E11.54627
G1 X112.540 Y103.096 E11.71185
G1 X113.067 Y103.096 E11.72412
G1 X117.573 Y107.602 E11.87234
G1 X117.573 Y107.074 E11.88461
G1 X113.595 Y103.096 E12.01548
G1 X114.122 Y103.096 E12.02775
G1 X117.573 Y106.547 E12.14127
G1 X117.573 Y106.019 E12.15353
G1 X114.650 Y103.096 E12.24970
G1 X115.177 Y103.096 E12.26197
G1 X117.573 Y105.492 E12.34079
G1 X117.573 Y104.964 E12.35306
G1 X115.705 Y103.096 E12.41453
G1 X116.232 Y103.096 E12.42680
G1 X117.573 Y104.437 E12.47091
G1 X117.573 Y103.910 E12.48318
G1 X116.760 Y103.096 E12.50995
G1 X117.287 Y103.096 E12.52222
G1 X117.573 Y103.382 E12.53163
M201 X400 Y400
M204 P400 T400
G1 F6240
G1 X117.287 Y103.096 E12.30978
G1 F6240
G1 X116.760 Y103.096 E12.02068
G1 F6240
G1 X117.573 Y103.910 E11.38999
G1 F6240
G1 X117.573 Y104.437 E11.10089
G1 F6240
G1 X116.232 Y103.096 E10.06136
G1 F6240
G1 X115.705 Y103.096 E9.77226
G1 F6240
G1 X117.573 Y104.964 E8.32389
G1 F6240
G1 X117.573 Y105.492 E8.03480
G1 F6240
G1 X117.247 Y105.165 E7.78163
G1 E7.53163 F3600.00000
G92 E0
G1 Z1.450 F7800.000
G1 X108.454 Y114.970 F7800.000
G1 Z0.450 F7800.000
G1 E5.20000 F3600.00000
M201 X500 Y500
M204 P500 T500
G1 F900
G1 X102.202 Y114.970 E5.34340
G1 X102.202 Y102.871 E5.62092
G1 X108.454 Y102.871 E5.76431
G1 X108.454 Y114.910 E6.04046
M201 X400 Y400
M204 P400 T400
G1 X108.822 Y115.338 F7800.000
M201 X500 Y500
M204 P500 T500
G1 F900
G1 X101.834 Y115.338 E6.20073
G1 X101.834 Y102.503 E6.49512
G1 X108.822 Y102.503 E6.65539
G1 X108.822 Y115.278 E6.94840
M201 X400 Y400
M204 P400 T400
G1 X109.189 Y115.706 F7800.000
M201 X500 Y500
M204 P500 T500
G1 F2400
G1 X101.466 Y115.706 E7.12555
G1 X101.466 Y102.136 E7.43681
G1 X109.189 Y102.136 E7.61396
G1 X109.189 Y115.645 E7.92385
M201 X400 Y400
M204 P400 T400
G1 X108.814 Y115.568 F7800.000
G1 X102.427 Y114.459 F7800.000
M201 X500 Y500
M204 P500 T500
G1 F4800
G1 X102.713 Y114.745 E7.93326
G1 X103.240 Y114.745 E7.94553
G1 X102.427 Y113.931 E7.97230
G1 X102.427 Y113.404 E7.98457
G1 X103.768 Y114.745 E8.02869
G1 X104.295 Y114.745 E8.04095
G1 X102.427 Y112.876 E8.10242
G1 X102.427 Y112.349 E8.11469
G1 X104.823 Y114.745 E8.19351
G1 X105.350 Y114.745 E8.20578
G1 X102.427 Y111.822 E8.30195
G1 X102.427 Y111.294 E8.31422
G1 X105.878 Y114.745 E8.42774
G1 X106.405 Y114.745 E8.44001
G1 X102.427 Y110.767 E8.57088
G1 X102.427 Y110.239 E8.58315
G1 X106.933 Y114.745 E8.73137
G1 X107.460 Y114.745 E8.74364
G1 X102.427 Y109.712 E8.90921
G1 X102.427 Y109.184 E8.92148
G1 X107.988 Y114.745 E9.10441
G1 X108.229 Y114.745 E9.11002
G1 X108.229 Y114.459 E9.11668
G1 X102.427 Y108.657 E9.30753
G1 X102.427 Y108.129 E9.31980
G1 X108.229 Y113.931 E9.51066
G1 X108.229 Y113.404 E9.52293
G1 X102.427 Y107.602 E9.71379
G1 X102.427 Y107.074 E9.72606
G1 X108.229 Y112.877 E9.91692
G1 X108.229 Y112.349 E9.92919
G1 X102.427 Y106.547 E10.12005
G1 X102.427 Y106.019 E10.13232
G1 X108.229 Y111.822 E10.32318
G1 X108.229 Y111.294 E10.33544
G1 X102.427 Y105.492 E10.52630
G1 X102.427 Y104.964 E10.53857
G1 X108.229 Y110.767 E10.72943
G1 X108.229 Y110.239 E10.74170
G1 X102.427 Y104.437 E10.93256
G1 X102.427 Y103.910 E10.94483
G1 X108.229 Y109.712 E11.13569
G1 X108.229 Y109.184 E11.14796
G1 X102.427 Y103.382 E11.33882
G1 X102.427 Y103.096 E11.34547
G1 X102.668 Y103.096 E11.35108
G1 X108.229 Y108.657 E11.53401
G1 X108.229 Y108.129 E11.54628
G1 X103.196 Y103.096 E11.71185
G1 X103.723 Y103.096 E11.72412
G1 X108.229 Y107.602 E11.87234
G1 X108.229 Y107.074 E11.88461
G1 X104.250 Y103.096 E12.01548
G1 X104.778 Y103.096 E12.02775
